X:212
T:Inchmagranachan
C:James MacIntosh, Dunkeld
B:A Collection of Reels, Strathspeys, etc (1930)
Z:Nigel Gatherer
R:Strathspey
M:4/4
L:1/8
K:Gm
D|G<G B>d g>agd|f>gfc A<FF>A|G<G B>d g>bag|f>dc>A B<GG:|
d|g>agd g>agd|f>dc>B A<FF>d|g>agd g>bag|f>dc>A B<GG>d|
g>agd g/^f/g/a/ ba/g/|fadf A<FF>A|(3BAG (3AG^F (3GBd (3gab|\
(3fdc (3cBA BGG|]
<end>
<start>
